swiss/communes/0131.svg

<?xml version="1.0" encoding="UTF-8" standalone="no"?>
<!-- Created with Inkscape (http://www.inkscape.org/) -->

<svg
   xmlns:dc="http://purl.org/dc/elements/1.1/"
   xmlns:cc="http://creativecommons.org/ns#"
   xmlns:rdf="http://www.w3.org/1999/02/22-rdf-syntax-ns#"
   xmlns:svg="http://www.w3.org/2000/svg"
   xmlns="http://www.w3.org/2000/svg"
   xmlns:xlink="http://www.w3.org/1999/xlink"
   xmlns:sodipodi="http://sodipodi.sourceforge.net/DTD/sodipodi-0.dtd"
   xmlns:inkscape="http://www.inkscape.org/namespaces/inkscape"
   version="1.0"
   width="208.86046"
   height="244.65999"
   id="svg2780"
   inkscape:version="0.48.0 r9654"
   sodipodi:docname="Adliswil-blazon.svg">
  <metadata
     id="metadata27">
    <rdf:RDF>
      <cc:Work
         rdf:about="">
        <dc:format>image/svg+xml</dc:format>
        <dc:type
           rdf:resource="http://purl.org/dc/dcmitype/StillImage" />
      </cc:Work>
    </rdf:RDF>
  </metadata>
  <sodipodi:namedview
     pagecolor="#ffffff"
     bordercolor="#666666"
     borderopacity="1"
     objecttolerance="10"
     gridtolerance="10"
     guidetolerance="10"
     inkscape:pageopacity="0"
     inkscape:pageshadow="2"
     inkscape:window-width="1373"
     inkscape:window-height="1042"
     id="namedview25"
     showgrid="false"
     inkscape:zoom="2.1335732"
     inkscape:cx="69.957922"
     inkscape:cy="162.14284"
     inkscape:window-x="0"
     inkscape:window-y="0"
     inkscape:window-maximized="0"
     inkscape:current-layer="svg2780" />
  <defs
     id="defs2782" />
  <g
     transform="translate(-18.805049,-806.25258)"
     id="layer1">
    <path
       d="M 19.805049,807.25258 L 23.566144,965.25562 C 26.252633,1078.1148 220.2179,1078.1148 222.9044,965.25562 L 226.6655,807.25258 L 19.805049,807.25258 z"
       id="path3282"
       style="fill:#2969c4;fill-opacity:1;fill-rule:evenodd;stroke:none;stroke-width:1.99999988;stroke-linecap:butt;stroke-miterlimit:4;stroke-dashoffset:0;stroke-opacity:1" />
    <path
       d="M 124.01575,213.86744 C 124.01575,213.95056 124.01575,214.03369 124.01575,213.86744 z"
       transform="translate(0,804.33069)"
       id="path3793"
       style="fill:none;fill-opacity:0.75;fill-rule:evenodd;stroke:#000000;stroke-width:1px;stroke-linecap:butt;stroke-linejoin:miter;stroke-opacity:1" />
    <path
       d="M 76.352234,51.420082 C 48.132194,48.306309 21.906678,46.755184 30.152961,28.673112 C 39.703442,36.902517 59.714777,41.882789 80.055229,43.837759 L 76.352234,51.420082 z"
       transform="translate(0,804.33069)"
       id="path3857"
       style="opacity:1;fill:#ffef39;fill-opacity:1;fill-rule:evenodd;stroke:#000000;stroke-width:1px;stroke-linecap:butt;stroke-linejoin:round;marker:none;marker-start:none;marker-mid:none;marker-end:none;stroke-miterlimit:4;stroke-dasharray:none;stroke-dashoffset:0;stroke-opacity:1;visibility:visible;display:inline;overflow:visible;enable-background:accumulate" />
    <path
       d="M 70.004242,867.74143 C 51.129857,870.2703 20.84868,874.53818 27.860631,856.98511 C 35.433071,859.92452 52.308787,860.84912 71.414907,860.33543 L 70.004242,867.74143 z"
       id="path3861"
       style="opacity:1;fill:#ffef39;fill-opacity:1;fill-rule:evenodd;stroke:#000000;stroke-width:1px;stroke-linecap:butt;stroke-linejoin:round;marker:none;marker-start:none;marker-mid:none;marker-end:none;stroke-miterlimit:4;stroke-dasharray:none;stroke-dashoffset:0;stroke-opacity:1;visibility:visible;display:inline;overflow:visible;enable-background:accumulate" />
    <path
       d="M 70.356908,880.61375 C 53.262164,890.75413 27.723377,899.06117 29.454109,880.27654 C 29.608311,878.60289 29.638015,878.55219 31.168796,879.1405 C 38.116071,881.8105 53.455605,878.69402 69.475243,871.79708 L 70.356908,880.61375 z"
       id="path3869"
       style="opacity:1;fill:#ffef39;fill-opacity:1;fill-rule:evenodd;stroke:#000000;stroke-width:1px;stroke-linecap:butt;stroke-linejoin:miter;marker:none;marker-start:none;marker-mid:none;marker-end:none;stroke-miterlimit:4;stroke-dasharray:none;stroke-dashoffset:0;stroke-opacity:1;visibility:visible;display:inline;overflow:visible;enable-background:accumulate" />
    <path
       d="M 76.97278,889.67199 C 65.944449,902.74066 39.897849,927.44649 31.031424,907.69833 C 30.343016,906.16504 30.708288,906.03769 32.347413,905.98604 C 39.786406,905.75169 59.151618,894.6359 71.329025,884.18024 L 76.97278,889.67199 z"
       id="path3873"
       style="opacity:1;fill:#ffef39;fill-opacity:1;fill-rule:evenodd;stroke:#000000;stroke-width:1px;stroke-linecap:butt;stroke-linejoin:miter;marker:none;marker-start:none;marker-mid:none;marker-end:none;stroke-miterlimit:4;stroke-dasharray:none;stroke-dashoffset:0;stroke-opacity:1;visibility:visible;display:inline;overflow:visible;enable-background:accumulate" />
    <path
       d="M 89.49593,892.29813 C 83.420723,904.70658 71.27262,929.51994 60.66438,918.27941 C 59.510797,917.05706 60.168557,916.65329 61.573752,915.80782 C 63.900363,914.40796 73.02165,905.51943 80.997276,891.25094 L 89.49593,892.29813 z"
       id="path3877"
       style="opacity:1;fill:#ffef39;fill-opacity:1;fill-rule:evenodd;stroke:#000000;stroke-width:1px;stroke-linecap:butt;stroke-linejoin:miter;marker:none;marker-start:none;marker-mid:none;marker-end:none;stroke-miterlimit:4;stroke-dasharray:none;stroke-dashoffset:0;stroke-opacity:1;visibility:visible;display:inline;overflow:visible;enable-background:accumulate" />
    <path
       d="M 101.52919,888.12754 C 100.1239,901.84096 94.316827,926.44241 83.413721,919.48478 C 81.996879,918.58065 82.475029,918.0674 83.581,916.85652 C 85.412179,914.85165 91.622054,903.73224 95.20054,887.78248 L 101.52919,888.12754 z"
       id="path3881"
       style="opacity:1;fill:#ffef39;fill-opacity:1;fill-rule:evenodd;stroke:#000000;stroke-width:1px;stroke-linecap:butt;stroke-linejoin:miter;marker:none;marker-start:none;marker-mid:none;marker-end:none;stroke-miterlimit:4;stroke-dasharray:none;stroke-dashoffset:0;stroke-opacity:1;visibility:visible;display:inline;overflow:visible;enable-background:accumulate" />
    <use
       transform="matrix(-1,0,0,1,248.65285,0.2493727)"
       id="use3883"
       x="0"
       y="0"
       width="248.03149"
       height="248.03149"
       xlink:href="#path3881" />
    <use
       transform="matrix(-1,0,0,1,248.49184,0.3526662)"
       id="use3879"
       x="0"
       y="0"
       width="248.03149"
       height="248.03149"
       xlink:href="#path3877" />
    <use
       transform="matrix(-1,0,0,1,248.62172,0.3526662)"
       id="use3871"
       x="0"
       y="0"
       width="248.03149"
       height="248.03149"
       xlink:href="#path3869" />
    <use
       transform="matrix(-1,0,0,1,248.91701,0.3526662)"
       id="use3875"
       x="0"
       y="0"
       width="248.03149"
       height="248.03149"
       xlink:href="#path3873" />
    <use
       transform="matrix(-1,0,0,1,248.83048,0.4951844)"
       id="use3865"
       x="0"
       y="0"
       width="248.03149"
       height="248.03149"
       xlink:href="#path3861" />
    <use
       transform="matrix(-1,0,0,1,248.67629,0.5289993)"
       id="use3867"
       x="0"
       y="0"
       width="248.03149"
       height="248.03149"
       xlink:href="#path3857" />
    <path
       d="M 131.45633,37.048935 C 116.62375,37.717605 113.80246,38.04453 108.79752,39.782097 C 104.74193,41.190081 97.188876,42.599713 94.86721,38.988599 C 92.466589,35.25468 95.590283,33.551254 97.071374,35.10927 C 101.53921,39.809154 121.21121,33.223011 131.45633,37.048935 z"
       transform="translate(0,804.33069)"
       id="path3855"
       style="opacity:1;fill:#ffef39;fill-opacity:1;fill-rule:evenodd;stroke:#000000;stroke-width:1px;stroke-linecap:butt;stroke-linejoin:miter;marker:none;marker-start:none;marker-mid:none;marker-end:none;stroke-miterlimit:4;stroke-dasharray:none;stroke-dashoffset:0;stroke-opacity:1;visibility:visible;display:inline;overflow:visible;enable-background:accumulate" />
    <path
       d="M 109.51038,821.3644 C 109.70625,822.52789 111.36595,823.22841 114.46205,822.44059 C 118.97464,821.29234 123.35867,818.74471 127.42943,820.19623 C 123.35867,818.74471 118.97464,821.29234 114.46205,822.44059 C 111.36595,823.22841 109.70625,822.52789 109.51038,821.3644 C 109.36616,820.50771 110.01558,819.4 111.46958,818.45062 C 119.97372,812.8979 134.45438,816.84139 146.8805,830.91926 L 137.15497,827.17867 C 143.02685,832.23152 146.98731,837.9215 147.87799,844.63475 L 141.14493,836.65483 C 144.70365,852.65589 143.4855,865.37286 136.40685,874.06073 C 139.99435,876.37505 143.79627,878.47495 145.13489,883.03814 C 152.21583,878.93907 158.91783,879.57667 165.33408,883.78626 C 160.22974,875.35421 160.63284,868.11295 167.82781,862.34021 C 150.47588,851.00265 163.86487,837.16962 174.81024,831.418 C 186.17601,825.44548 198.37521,827.19474 210.84459,814.58535 C 211.48749,813.93523 213.03337,813.97828 213.83706,815.0841 C 219.44959,822.80657 211.07362,833.53747 195.2588,834.90922 C 190.76952,835.29861 179.788,839.76376 171.56839,843.51258 C 186.50609,865.7003 185.70659,899.26358 155.98261,893.53679 C 152.02345,892.774 148.7361,890.86267 144.88552,890.51932 C 142.94356,924.95106 131.1421,937.23059 122.30843,952.02361 C 110.99782,929.12678 99.41134,909.0237 102.49217,890.76869 C 97.49484,891.19888 93.450163,893.39217 91.270396,893.5118 C 55.454957,895.4775 69.255513,855.98539 77.366035,843.0227 C 68.28143,839.13325 57.385479,834.88348 48.877043,833.41298 C 35.433071,831.08948 29.621377,820.55146 35.433071,814.21129 C 36.175808,813.40101 37.00587,813.13 37.932405,814.18067 C 45.659121,822.9426 59.491339,826.53258 68.078738,828.6749 C 80.338786,831.73345 100.22815,848.32742 81.29549,861.84147 C 86.959044,867.07438 90.040174,873.86416 84.038589,883.53689 C 90.391775,879.86862 96.8984,877.5813 104.23778,882.78877 C 105.40151,878.05067 108.00054,875.65127 111.92952,875.57929 C 110.90822,880.55304 111.67625,885.27942 113.21519,891.26744 C 111.67625,885.27942 110.80294,880.54188 111.92952,875.57929 C 113.13314,870.27736 116.61951,864.71853 124.01575,857.10339 C 125.27107,855.81091 125.7182,852.59296 125.43445,850.74438 C 124.6973,845.942 118.95616,848.06425 114.46205,847.62722 C 117.86548,845.6276 121.08209,843.93434 124.01575,842.63977 C 120.18244,836.79046 115.30053,831.75458 110.55767,828.65977 C 107.19029,826.46249 103.62667,830.61739 102.30071,834.3223 C 98.103139,828.32788 104.04143,822.48898 109.51038,821.3644 z M 121.75801,824.01081 C 121.75801,825.56819 120.49405,826.83214 118.93668,826.83214 C 117.37931,826.83214 116.11535,825.56819 116.11535,824.01081 C 116.11535,822.45344 117.37931,821.18948 118.93668,821.18948 C 120.49405,821.18948 121.75801,822.45344 121.75801,824.01081 z"
       id="path3848"
       style="opacity:1;fill:#ffef39;fill-opacity:1;fill-rule:evenodd;stroke:#000000;stroke-width:0.99921262;stroke-linecap:butt;stroke-linejoin:round;marker:none;marker-start:none;marker-mid:none;marker-end:none;stroke-miterlimit:4;stroke-dasharray:none;stroke-dashoffset:0;stroke-opacity:1;visibility:visible;display:inline;overflow:visible;enable-background:accumulate" />
    <path
       d="M 119.90651,18.622126 A 1.0579987,1.0579987 0 1 1 117.79051,18.622126 A 1.0579987,1.0579987 0 1 1 119.90651,18.622126 z"
       transform="matrix(1.1666667,0,0,1.1666667,-19.631751,801.05067)"
       id="path3853"
       style="opacity:1;fill:#000000;fill-opacity:1;fill-rule:evenodd;stroke:none;stroke-width:1pt;stroke-linecap:butt;stroke-linejoin:miter;marker:none;marker-start:none;marker-mid:none;marker-end:none;stroke-miterlimit:4;stroke-dasharray:none;stroke-dashoffset:0;stroke-opacity:1;visibility:visible;display:inline;overflow:visible;enable-background:accumulate" />
    <path
       d="M 22.59375,120.5 L 23.5625,160.9375 C 26.248988,273.79668 220.21975,273.79668 222.90625,160.9375 L 223.875,120.5 L 22.59375,120.5 z"
       transform="translate(0,804.33069)"
       id="path3885"
       style="opacity:1;fill:#ffef39;fill-opacity:1;fill-rule:evenodd;stroke:#000000;stroke-width:0.99921262;stroke-linecap:butt;stroke-linejoin:miter;marker:none;marker-start:none;marker-mid:none;marker-end:none;stroke-miterlimit:4;stroke-dasharray:none;stroke-dashoffset:0;stroke-opacity:1;visibility:visible;display:inline;overflow:visible;enable-background:accumulate" />
    <path
       d="M 31.126387,935.27065 C 31.073356,942.33808 32.065937,949.33347 33.406067,956.22985 L 44.831603,945.39601 C 47.256891,962.52871 54.328716,978.01223 64.588824,990.26641 L 48.658208,991.12249 C 54.037895,998.79009 60.486861,1005.6065 67.791231,1011.3141 L 71.400723,997.49876 C 83.416527,1008.7938 98.578543,1016.2294 115.25741,1018.0447 L 107.6042,1029.1442 C 117.96976,1031.1007 128.49758,1030.8028 138.86838,1029.1442 L 131.21516,1018.0447 C 147.89695,1016.2308 163.05488,1008.8005 175.07185,997.49876 L 178.68135,1011.3141 C 185.98571,1005.6065 192.43469,998.78999 197.81437,991.12249 L 181.88375,990.26641 C 192.14311,978.01285 199.21548,962.52882 201.64098,945.39601 L 213.06651,956.22985 C 214.65321,949.36928 215.17716,942.31939 215.34619,935.27065 L 127.90421,935.27065 L 127.90421,944.45137 L 118.56837,944.45137 L 118.56837,935.27065 L 31.126387,935.27065 z M 56.935615,945.39601 L 109.44965,945.39601 L 73.354734,981.46945 C 65.05888,971.542 59.233079,959.13726 56.935615,945.39601 z M 136.99578,945.39601 L 189.50982,945.39601 C 187.20442,959.13725 181.38525,971.54344 173.0907,981.46945 L 136.99578,945.39601 z M 127.98562,950.44393 L 166.19739,988.64281 C 155.67471,998.13366 142.45588,1004.191 127.98562,1005.292 L 127.98562,950.44393 z M 118.45981,950.47345 L 118.45981,1005.292 C 104.00031,1004.1857 90.792539,998.12912 80.275189,988.64281 L 118.45981,950.47345 z"
       id="rect3004"
       style="opacity:1;fill:#2969c4;fill-opacity:1;fill-rule:evenodd;stroke:#000000;stroke-width:1.00000012px;stroke-linecap:butt;stroke-linejoin:miter;marker:none;marker-start:none;marker-mid:none;marker-end:none;stroke-miterlimit:4;stroke-dasharray:none;stroke-dashoffset:0;stroke-opacity:1;visibility:visible;display:inline;overflow:visible;enable-background:accumulate" />
    <path
       d="M 19.805049,807.25258 L 23.566144,965.25562 C 26.252633,1078.1148 220.2179,1078.1148 222.9044,965.25562 L 226.6655,807.25258 L 19.805049,807.25258 z"
       id="path4212"
       style="fill:none;fill-opacity:1;fill-rule:evenodd;stroke:#000000;stroke-width:1.99999988;stroke-linecap:butt;stroke-miterlimit:4;stroke-dashoffset:0;stroke-opacity:1" />
  </g>
  <path
     style="fill:#d40000;fill-opacity:1;stroke:none"
     d="m 79.156781,38.617278 c -1.759589,-0.411831 -3.066782,-1.733953 -3.489111,-3.528957 -0.198792,-0.844917 0.271868,-1.808015 0.969083,-1.983004 0.408687,-0.102574 0.851197,0.05867 1.589846,0.579318 2.399372,1.691233 5.427807,1.949836 14.636591,1.249839 9.52622,-0.724126 10.23632,-0.741023 10.67701,-0.254058 0.34221,0.378134 0.30528,0.415861 -0.5261,0.537405 -0.49177,0.0719 -1.79052,0.195195 -2.8861,0.273998 -3.352794,0.241158 -6.305899,0.78938 -9.426147,1.749892 -5.034457,1.549766 -8.855576,2.005043 -11.545072,1.375567 l 0,0 z"
     id="path3018"
     inkscape:connector-curvature="0" />
</svg>

<svg xmlns="http://www.w3.org/2000/svg" xmlns:xlink="http://www.w3.org/1999/xlink" version="1.0" width="208.86" height="244.66"><g transform="translate(-18.805 -806.253)"><path d="m19.805 807.253 3.761 158.003c2.687 112.859 196.652 112.859 199.338 0l3.762-158.003H19.805z" style="fill:#2969c4;fill-opacity:1;fill-rule:evenodd;stroke:none;stroke-width:1.99999988;stroke-linecap:butt;stroke-miterlimit:4;stroke-dashoffset:0;stroke-opacity:1"/><path d="M124.016 213.867c0 .084 0 .167 0 0z" transform="translate(0 804.33)" style="fill:none;fill-opacity:.75;fill-rule:evenodd;stroke:#000;stroke-width:1px;stroke-linecap:butt;stroke-linejoin:miter;stroke-opacity:1"/><path d="M76.352 51.42c-28.22-3.114-54.445-4.665-46.199-22.747 9.55 8.23 29.562 13.21 49.902 15.165l-3.703 7.582z" transform="translate(0 804.33)" id="f" style="opacity:1;fill:#ffef39;fill-opacity:1;fill-rule:evenodd;stroke:#000;stroke-width:1px;stroke-linecap:butt;stroke-linejoin:round;marker:none;marker-start:none;marker-mid:none;marker-end:none;stroke-miterlimit:4;stroke-dasharray:none;stroke-dashoffset:0;stroke-opacity:1;visibility:visible;display:inline;overflow:visible;enable-background:accumulate"/><path d="M70.004 867.741c-18.874 2.53-49.155 6.797-42.143-10.756 7.572 2.94 24.448 3.864 43.554 3.35l-1.41 7.406z" id="e" style="opacity:1;fill:#ffef39;fill-opacity:1;fill-rule:evenodd;stroke:#000;stroke-width:1px;stroke-linecap:butt;stroke-linejoin:round;marker:none;marker-start:none;marker-mid:none;marker-end:none;stroke-miterlimit:4;stroke-dasharray:none;stroke-dashoffset:0;stroke-opacity:1;visibility:visible;display:inline;overflow:visible;enable-background:accumulate"/><path d="M70.357 880.614c-17.095 10.14-42.634 18.447-40.903-.337.154-1.674.184-1.725 1.715-1.137 6.947 2.67 22.287-.446 38.306-7.343l.882 8.817z" id="c" style="opacity:1;fill:#ffef39;fill-opacity:1;fill-rule:evenodd;stroke:#000;stroke-width:1px;stroke-linecap:butt;stroke-linejoin:miter;marker:none;marker-start:none;marker-mid:none;marker-end:none;stroke-miterlimit:4;stroke-dasharray:none;stroke-dashoffset:0;stroke-opacity:1;visibility:visible;display:inline;overflow:visible;enable-background:accumulate"/><path d="M76.973 889.672c-11.029 13.069-37.075 37.774-45.942 18.026-.688-1.533-.323-1.66 1.316-1.712 7.44-.234 26.805-11.35 38.982-21.806l5.644 5.492z" id="d" style="opacity:1;fill:#ffef39;fill-opacity:1;fill-rule:evenodd;stroke:#000;stroke-width:1px;stroke-linecap:butt;stroke-linejoin:miter;marker:none;marker-start:none;marker-mid:none;marker-end:none;stroke-miterlimit:4;stroke-dasharray:none;stroke-dashoffset:0;stroke-opacity:1;visibility:visible;display:inline;overflow:visible;enable-background:accumulate"/><path d="M89.496 892.298c-6.075 12.409-18.223 37.222-28.832 25.981-1.153-1.222-.495-1.626.91-2.471 2.326-1.4 11.448-10.289 19.423-24.557l8.499 1.047z" id="b" style="opacity:1;fill:#ffef39;fill-opacity:1;fill-rule:evenodd;stroke:#000;stroke-width:1px;stroke-linecap:butt;stroke-linejoin:miter;marker:none;marker-start:none;marker-mid:none;marker-end:none;stroke-miterlimit:4;stroke-dasharray:none;stroke-dashoffset:0;stroke-opacity:1;visibility:visible;display:inline;overflow:visible;enable-background:accumulate"/><path d="M101.53 888.128c-1.406 13.713-7.213 38.314-18.116 31.357-1.417-.904-.939-1.418.167-2.628 1.831-2.005 8.041-13.125 11.62-29.075l6.328.346z" id="a" style="opacity:1;fill:#ffef39;fill-opacity:1;fill-rule:evenodd;stroke:#000;stroke-width:1px;stroke-linecap:butt;stroke-linejoin:miter;marker:none;marker-start:none;marker-mid:none;marker-end:none;stroke-miterlimit:4;stroke-dasharray:none;stroke-dashoffset:0;stroke-opacity:1;visibility:visible;display:inline;overflow:visible;enable-background:accumulate"/><use transform="matrix(-1 0 0 1 248.653 .25)" width="248.031" height="248.031" xlink:href="#a"/><use transform="matrix(-1 0 0 1 248.492 .353)" width="248.031" height="248.031" xlink:href="#b"/><use transform="matrix(-1 0 0 1 248.622 .353)" width="248.031" height="248.031" xlink:href="#c"/><use transform="matrix(-1 0 0 1 248.917 .353)" width="248.031" height="248.031" xlink:href="#d"/><use transform="matrix(-1 0 0 1 248.83 .495)" width="248.031" height="248.031" xlink:href="#e"/><use transform="matrix(-1 0 0 1 248.676 .529)" width="248.031" height="248.031" xlink:href="#f"/><path d="M131.456 37.049c-14.832.669-17.654.996-22.658 2.733-4.056 1.408-11.61 2.818-13.93-.793-2.401-3.734.722-5.438 2.203-3.88 4.468 4.7 24.14-1.886 34.385 1.94z" transform="translate(0 804.33)" style="opacity:1;fill:#ffef39;fill-opacity:1;fill-rule:evenodd;stroke:#000;stroke-width:1px;stroke-linecap:butt;stroke-linejoin:miter;marker:none;marker-start:none;marker-mid:none;marker-end:none;stroke-miterlimit:4;stroke-dasharray:none;stroke-dashoffset:0;stroke-opacity:1;visibility:visible;display:inline;overflow:visible;enable-background:accumulate"/><path d="M109.51 821.364c.196 1.164 1.856 1.864 4.952 1.077 4.513-1.149 8.897-3.696 12.967-2.245-4.07-1.451-8.454 1.096-12.967 2.245-3.096.787-4.756.087-4.952-1.077-.144-.856.506-1.964 1.96-2.913 8.504-5.553 22.984-1.61 35.41 12.468l-9.725-3.74c5.872 5.053 9.832 10.743 10.723 17.456l-6.733-7.98c3.559 16 2.34 28.718-4.738 37.406 3.587 2.314 7.39 4.414 8.728 8.977 7.08-4.099 13.783-3.461 20.2.748-5.105-8.432-4.702-15.673 2.493-21.446-17.352-11.337-3.963-25.17 6.982-30.922 11.366-5.973 23.565-4.223 36.035-16.833.642-.65 2.188-.607 2.992.5 5.613 7.722-2.763 18.452-18.578 19.824-4.49.39-15.471 4.855-23.69 8.604 14.937 22.187 14.138 55.75-15.586 50.024-3.96-.763-7.247-2.674-11.097-3.018-1.942 34.432-13.744 46.712-22.578 61.505-11.31-22.897-22.897-43-19.816-61.255-4.997.43-9.042 2.623-11.222 2.743-35.815 1.966-22.014-37.527-13.904-50.49-9.085-3.889-19.98-8.139-28.489-9.609-13.444-2.324-19.256-12.862-13.444-19.202.743-.81 1.573-1.081 2.5-.03 7.726 8.762 21.558 12.352 30.146 14.494 12.26 3.058 32.15 19.652 13.216 33.166 5.664 5.233 8.745 12.023 2.744 21.696 6.353-3.668 12.86-5.956 20.199-.748 1.164-4.738 3.763-7.138 7.692-7.21-1.022 4.974-.254 9.7 1.285 15.688-1.539-5.988-2.412-10.725-1.285-15.688 1.203-5.302 4.69-10.86 12.086-18.476 1.255-1.292 1.702-4.51 1.418-6.359-.737-4.802-6.478-2.68-10.972-3.117 3.403-2 6.62-3.693 9.554-4.987-3.834-5.85-8.715-10.885-13.458-13.98-3.368-2.198-6.931 1.957-8.257 5.662-4.198-5.994 1.74-11.833 7.21-12.958zm12.248 2.647a2.822 2.822 0 0 1-5.643 0 2.822 2.822 0 0 1 5.643 0z" style="opacity:1;fill:#ffef39;fill-opacity:1;fill-rule:evenodd;stroke:#000;stroke-width:.99921262;stroke-linecap:butt;stroke-linejoin:round;marker:none;marker-start:none;marker-mid:none;marker-end:none;stroke-miterlimit:4;stroke-dasharray:none;stroke-dashoffset:0;stroke-opacity:1;visibility:visible;display:inline;overflow:visible;enable-background:accumulate"/><path d="M119.907 18.622a1.058 1.058 0 1 1-2.116 0 1.058 1.058 0 1 1 2.116 0z" transform="matrix(1.16667 0 0 1.16667 -19.632 801.05)" style="opacity:1;fill:#000;fill-opacity:1;fill-rule:evenodd;stroke:none;stroke-width:1pt;stroke-linecap:butt;stroke-linejoin:miter;marker:none;marker-start:none;marker-mid:none;marker-end:none;stroke-miterlimit:4;stroke-dasharray:none;stroke-dashoffset:0;stroke-opacity:1;visibility:visible;display:inline;overflow:visible;enable-background:accumulate"/><path d="m22.594 120.5.968 40.438c2.687 112.859 196.658 112.859 199.344 0l.969-40.438H22.594z" transform="translate(0 804.33)" style="opacity:1;fill:#ffef39;fill-opacity:1;fill-rule:evenodd;stroke:#000;stroke-width:.99921262;stroke-linecap:butt;stroke-linejoin:miter;marker:none;marker-start:none;marker-mid:none;marker-end:none;stroke-miterlimit:4;stroke-dasharray:none;stroke-dashoffset:0;stroke-opacity:1;visibility:visible;display:inline;overflow:visible;enable-background:accumulate"/><path d="M31.126 935.27c-.053 7.068.94 14.063 2.28 20.96l11.426-10.834c2.425 17.133 9.497 32.616 19.757 44.87l-15.93.856c5.379 7.668 11.828 14.485 19.132 20.192l3.61-13.815c12.016 11.295 27.178 18.73 43.856 20.546l-7.653 11.1c10.366 1.956 20.894 1.658 31.264 0l-7.653-11.1c16.682-1.814 31.84-9.244 43.857-20.546l3.61 13.815c7.304-5.707 13.753-12.524 19.132-20.192l-15.93-.856c10.26-12.253 17.331-27.737 19.757-44.87l11.426 10.834c1.586-6.86 2.11-13.91 2.28-20.96h-87.443v9.181h-9.336v-9.18H31.126zm25.81 10.126h52.514l-36.095 36.073c-8.296-9.927-14.122-22.332-16.42-36.073zm80.06 0h52.514c-2.306 13.741-8.125 26.147-16.42 36.073l-36.094-36.073zm-9.01 5.048 38.211 38.199c-10.522 9.49-23.741 15.548-38.211 16.649v-54.848zm-9.526.03v54.818c-14.46-1.106-27.667-7.163-38.185-16.65l38.185-38.169z" style="opacity:1;fill:#2969c4;fill-opacity:1;fill-rule:evenodd;stroke:#000;stroke-width:1.00000012px;stroke-linecap:butt;stroke-linejoin:miter;marker:none;marker-start:none;marker-mid:none;marker-end:none;stroke-miterlimit:4;stroke-dasharray:none;stroke-dashoffset:0;stroke-opacity:1;visibility:visible;display:inline;overflow:visible;enable-background:accumulate"/><path d="m19.805 807.253 3.761 158.003c2.687 112.859 196.652 112.859 199.338 0l3.762-158.003H19.805z" style="fill:none;fill-opacity:1;fill-rule:evenodd;stroke:#000;stroke-width:1.99999988;stroke-linecap:butt;stroke-miterlimit:4;stroke-dashoffset:0;stroke-opacity:1"/></g><path style="fill:#d40000;fill-opacity:1;stroke:none" d="M79.157 38.617c-1.76-.412-3.067-1.734-3.49-3.529-.198-.845.273-1.808.97-1.983.408-.102.85.059 1.59.58 2.399 1.69 5.427 1.95 14.636 1.25 9.526-.725 10.237-.742 10.677-.255.342.379.305.416-.526.538-.492.072-1.79.195-2.886.274-3.353.241-6.306.79-9.426 1.75-5.035 1.55-8.856 2.005-11.545 1.375z"/></svg>
